res/skins/LateNight/buttons/btn_xfader_aux_right.svg

<svg width="11" height="13" version="1.1" xmlns="http://www.w3.org/2000/svg"><path d="m2 2v9h2v-3h1.5l3 3h1.5v-1.5l-2-2 1-1v-3l-1.5-1.5zm2 2h3v2h-3z" fill="#888"/></svg>

<?xml version="1.0" encoding="UTF-8" standalone="no"?>
<svg
   xmlns:dc="http://purl.org/dc/elements/1.1/"
   xmlns:cc="http://creativecommons.org/ns#"
   xmlns:rdf="http://www.w3.org/1999/02/22-rdf-syntax-ns#"
   xmlns:svg="http://www.w3.org/2000/svg"
   xmlns="http://www.w3.org/2000/svg"
   width="11"
   height="13"
   version="1.1"
   id="svg4">
  <metadata
     id="metadata10">
    <rdf:RDF>
      <cc:Work
         rdf:about="">
        <dc:format>image/svg+xml</dc:format>
        <dc:type
           rdf:resource="http://purl.org/dc/dcmitype/StillImage" />
        <dc:title></dc:title>
      </cc:Work>
    </rdf:RDF>
  </metadata>
  <defs
     id="defs8" />
  <path
     id="path817"
     d="m 2,2 v 9 H 4 V 8 h 1.5 l 3,3 H 10 V 9.5 l -2,-2 1,-1 v -3 L 7.5,2 Z M 4,4 H 7 V 6 H 4 Z"
     style="fill:#aaaaaa;fill-opacity:1;stroke:none;stroke-width:1px;stroke-linecap:butt;stroke-linejoin:miter;stroke-opacity:1" />
</svg>
